lut_files/generated_lut.cube
# Generated by Orion4D_MetaNode LUT Generator
LUT_3D_SIZE 5
DOMAIN_MIN 0.0 0.0 0.0
DOMAIN_MAX 1.0 1.0 1.0
0.000000 0.000000 0.000000
0.023365 0.021569 0.049343
0.070835 0.076860 0.086859
0.116875 0.135026 0.136987
0.124345 0.145098 0.152941
0.193598 0.217030 0.102871
0.150847 0.191248 0.064553
0.163620 0.250000 0.000001
0.116875 0.135026 0.136987
0.126767 0.147401 0.155242
0.273550 0.313432 0.132254
0.354173 0.467179 0.078697
0.354173 0.467179 0.078696
0.335551 0.500000 0.000000
0.340722 0.517647 0.007843
0.603453 0.688561 0.282079
0.451883 0.526010 0.218534
0.608504 0.775361 0.189582
0.495275 0.727290 0.004974
0.503922 0.745098 0.000000
0.616183 0.700758 0.292157
0.611509 0.695619 0.294118
0.662675 0.847059 0.200000
0.684612 0.874510 0.207842
0.622878 0.894118 0.027451
0.123840 0.084853 0.172853
0.121792 0.090196 0.170588
0.101646 0.086951 0.158198
0.115362 0.095977 0.198849
0.126766 0.147399 0.155243
0.214142 0.187002 0.218447
0.263000 0.250000 0.250000
0.253000 0.250000 0.250000
0.243000 0.250000 0.250000
0.270634 0.261313 0.324058
0.376326 0.409316 0.221216
0.445500 0.500000 0.250000
0.435500 0.500000 0.250000
0.425500 0.500000 0.250000
0.475006 0.543065 0.315613
0.617370 0.699597 0.296481
0.628000 0.749999 0.250001
0.618000 0.750000 0.250000
0.608000 0.750000 0.250000
0.598000 0.750000 0.250000
0.616183 0.700758 0.292157
0.611509 0.695619 0.294118
0.690833 0.817441 0.328482
0.692996 0.878431 0.223529
0.622879 0.894117 0.027454
0.276119 0.087292 0.589104
0.298551 0.211069 0.436109
0.242127 0.170858 0.382623
0.242128 0.170859 0.382624
0.337226 0.229188 0.575616
0.455105 0.374509 0.503920
0.353500 0.250000 0.500000
0.343500 0.250000 0.500000
0.333500 0.250000 0.500000
0.337226 0.229188 0.575616
0.455106 0.374510 0.503922
0.536000 0.500000 0.500000
0.526000 0.500000 0.500000
0.516000 0.500000 0.500000
0.545557 0.535901 0.529793
0.622969 0.701931 0.311403
0.718500 0.750000 0.500000
0.708500 0.750000 0.500000
0.698500 0.750000 0.500000
0.722609 0.795122 0.502289
0.622969 0.701931 0.311403
0.824353 0.780456 0.736105
0.761405 0.882259 0.404457
0.761406 0.882260 0.404458
0.789415 0.877403 0.520058
0.289322 0.084314 0.631373
0.289322 0.084314 0.631373
0.325808 0.223529 0.492157
0.433516 0.296140 0.701541
0.337227 0.229188 0.575616
0.504628 0.323264 0.749373
0.502568 0.310846 0.774510
0.325810 0.223532 0.492158
0.437004 0.298981 0.705463
0.443133 0.301961 0.723529
0.687026 0.560597 0.768440
0.626500 0.500000 0.750000
0.616500 0.500000 0.750000
0.606500 0.500000 0.750000
0.451329 0.311479 0.727161
0.716359 0.593713 0.784314
0.809000 0.750000 0.750000
0.799000 0.750000 0.750000
0.786504 0.750000 0.750000
0.769244 0.753559 0.714567
0.885294 0.831373 0.803922
0.908863 0.854902 0.823529
0.908863 0.854902 0.823529
0.882549 0.843577 0.827891
0.941391 0.958034 0.777900
0.289322 0.084315 0.631373
0.502569 0.310846 0.774510
0.502569 0.310846 0.774510
0.437004 0.298981 0.705463
0.443133 0.301961 0.723529
0.512211 0.318261 0.782967
0.502569 0.310846 0.774510
0.699629 0.578915 0.832042
0.438000 0.299927 0.706410
0.451327 0.311475 0.727162
0.711651 0.581021 0.795642
0.705251 0.591269 0.797152
0.699629 0.578915 0.832042
0.720808 0.601961 0.845098
0.451329 0.311477 0.727162
0.721102 0.594118 0.796078
0.891040 0.831893 0.820277
0.881301 0.789342 0.904518
0.879826 0.811293 0.874128
0.976465 0.927141 0.936901
0.904016 0.849020 0.821569
0.908863 0.854902 0.823529
0.881301 0.789342 0.904518
0.919236 0.879773 0.912064
1.000000 1.000000 1.000000
