lut_files/generated_lut.cube
# Generated by Orion4D_MetaNode LUT Generator
LUT_3D_SIZE 9
DOMAIN_MIN 0.0 0.0 0.0
DOMAIN_MAX 1.0 1.0 1.0
0.000000 0.000000 0.000000
0.010196 0.017901 0.000000
0.023365 0.021569 0.049343
0.023725 0.015065 0.066253
0.070835 0.076860 0.086859
0.099056 0.090402 0.145305
0.116875 0.135026 0.136987
0.122824 0.143137 0.147059
0.124345 0.145098 0.152941
0.062902 0.072549 0.029412
0.057565 0.084314 0.007843
0.082928 0.125000 0.000000
0.118431 0.168491 0.030111
0.109991 0.134086 0.077948
0.099056 0.090403 0.145304
0.116875 0.135026 0.136987
0.122824 0.143137 0.147059
0.124345 0.145098 0.152941
0.193598 0.217030 0.102871
0.173729 0.203922 0.080392
0.150847 0.191248 0.064553
0.168371 0.250000 0.000000
0.163620 0.250000 0.000001
0.257897 0.337682 0.086783
0.116875 0.135026 0.136987
0.127419 0.148388 0.149020
0.126767 0.147401 0.155242
0.273549 0.313432 0.132254
0.273549 0.313432 0.132254
0.299251 0.374510 0.105882
0.224208 0.325490 0.005882
0.253813 0.375000 0.000000
0.249586 0.375000 0.000000
0.342097 0.489082 0.030860
0.323327 0.490847 0.009027
0.323327 0.490847 0.009027
0.273550 0.313432 0.132254
0.357223 0.417646 0.170588
0.354173 0.467179 0.078697
0.354173 0.467179 0.078697
0.354173 0.467179 0.078696
0.342098 0.489083 0.030860
0.335551 0.500000 0.000000
0.330276 0.500000 0.000000
0.340722 0.517647 0.007843
0.558953 0.633333 0.270588
0.447239 0.520166 0.215538
0.354174 0.467179 0.078697
0.354173 0.467179 0.078697
0.342098 0.489083 0.030861
0.342098 0.489083 0.030860
0.342099 0.489084 0.030860
0.421517 0.625000 0.000000
0.416250 0.625000 0.000000
0.603453 0.688561 0.282079
0.601253 0.684658 0.288235
0.451883 0.526010 0.218534
0.354173 0.467179 0.078697
0.608504 0.775361 0.189582
0.608504 0.775361 0.189582
0.495275 0.727290 0.004974
0.495275 0.727290 0.004973
0.503922 0.745098 0.000000
0.603453 0.688561 0.282079
0.612772 0.697899 0.291596
0.601253 0.684658 0.288235
0.608504 0.775361 0.189582
0.608504 0.775361 0.189582
0.660863 0.847058 0.195705
0.660863 0.847059 0.195704
0.594875 0.857215 0.022993
0.606916 0.877899 0.016219
0.616183 0.700758 0.292157
0.612772 0.697899 0.291596
0.611509 0.695619 0.294118
0.608504 0.775361 0.189582
0.662675 0.847059 0.200000
0.660863 0.847059 0.195705
0.684612 0.874510 0.207842
0.622878 0.894118 0.027451
0.622878 0.894118 0.027451
0.056090 0.041176 0.074510
0.054789 0.054317 0.053192
0.023365 0.021569 0.049344
0.054911 0.033426 0.127411
0.070759 0.058268 0.127181
0.115362 0.095977 0.198849
0.116875 0.135026 0.136987
0.122173 0.139216 0.154902
0.124345 0.145098 0.152941
0.132726 0.112633 0.141176
0.131500 0.125000 0.125000
0.126526 0.125000 0.125000
0.121500 0.125000 0.125000
0.116500 0.125000 0.125000
0.111500 0.125000 0.125000
0.106643 0.125000 0.125000
0.122824 0.143137 0.147059
0.126766 0.147399 0.155243
0.193598 0.217031 0.102871
0.222750 0.250000 0.125000
0.217750 0.250000 0.125000
0.212750 0.250000 0.125000
0.207750 0.250000 0.125000
0.202750 0.250000 0.125000
0.197750 0.250000 0.125000
0.192750 0.250000 0.125000
0.126766 0.147399 0.155243
0.306136 0.334661 0.178850
0.314000 0.374999 0.125000
0.309000 0.375000 0.125000
0.304000 0.375000 0.125000
0.299000 0.375000 0.125000
0.294000 0.375000 0.125000
0.289000 0.375000 0.125000
0.284000 0.375000 0.125000
0.323326 0.490847 0.009027
0.376325 0.409315 0.221216
0.357224 0.417647 0.170589
0.400253 0.499999 0.125001
0.395250 0.500000 0.125000
0.390250 0.500000 0.125000
0.385250 0.500000 0.125000
0.380250 0.500000 0.125000
0.375250 0.500000 0.125000
0.344992 0.519608 0.015687
0.558953 0.633333 0.270588
0.558953 0.633333 0.270588
0.447239 0.520165 0.215538
0.367480 0.464708 0.121569
0.481500 0.625000 0.125000
0.476500 0.625000 0.125000
0.471500 0.625000 0.125000
0.466500 0.625000 0.125000
0.461500 0.625000 0.125000
0.603453 0.688561 0.282079
0.601253 0.684658 0.288235
0.451885 0.526012 0.218535
0.451884 0.526012 0.218534
0.608503 0.775361 0.189582
0.567750 0.750000 0.125000
0.562750 0.750000 0.125000
0.557750 0.750000 0.125000
0.552750 0.750000 0.125000
0.616183 0.700758 0.292157
0.612772 0.697899 0.291596
0.611509 0.695619 0.294118
0.608504 0.775361 0.189582
0.608504 0.775361 0.189582
0.662674 0.847058 0.200000
0.684611 0.874510 0.207843
0.649000 0.875000 0.125000
0.596542 0.851924 0.038719
0.616183 0.700758 0.292157
0.612772 0.697899 0.291596
0.611509 0.695619 0.294118
0.608504 0.775361 0.189583
0.662675 0.847059 0.200000
0.684612 0.874510 0.207843
0.688737 0.878431 0.211765
0.622879 0.894118 0.027452
0.622878 0.894118 0.027451
0.123840 0.084853 0.172853
0.128319 0.095502 0.177855
0.121792 0.090196 0.170588
0.054912 0.033427 0.127412
0.101646 0.086951 0.158198
0.115362 0.095977 0.198849
0.115362 0.095977 0.198849
0.122173 0.139216 0.154902
0.126766 0.147399 0.155243
0.165903 0.135530 0.190432
0.176750 0.125000 0.250000
0.171750 0.125000 0.250000
0.166750 0.125000 0.250000
0.161750 0.125000 0.250000
0.156750 0.125000 0.250000
0.151750 0.125000 0.249999
0.122173 0.139216 0.154903
0.126766 0.147399 0.155243
0.214142 0.187002 0.218447
0.268000 0.250000 0.250000
0.263000 0.250000 0.250000
0.258000 0.250000 0.250000
0.253000 0.250000 0.250000
0.248000 0.250000 0.250000
0.243000 0.250000 0.250000
0.238000 0.250000 0.250000
0.270634 0.261313 0.324058
0.376325 0.409314 0.221216
0.359250 0.375000 0.250000
0.354250 0.375000 0.250000
0.349250 0.375000 0.250000
0.344250 0.375000 0.250000
0.339250 0.375000 0.250000
0.334250 0.375000 0.250000
0.329250 0.375000 0.250000
0.274944 0.266667 0.325127
0.376326 0.409316 0.221216
0.450500 0.500000 0.250000
0.445500 0.500000 0.250000
0.440500 0.500000 0.250000
0.435500 0.500000 0.250000
0.430500 0.500000 0.250000
0.425500 0.500000 0.250000
0.420500 0.500000 0.250000
0.475006 0.543065 0.315613
0.558953 0.633333 0.270588
0.541750 0.625000 0.250000
0.536750 0.625000 0.250000
0.531750 0.625000 0.250000
0.526750 0.625000 0.250000
0.521750 0.625000 0.250000
0.516750 0.625000 0.250000
0.511750 0.625000 0.250000
0.584440 0.685097 0.333656
0.617370 0.699597 0.296481
0.611509 0.695619 0.294118
0.628000 0.749999 0.250001
0.623000 0.750000 0.250000
0.618000 0.750000 0.250000
0.613000 0.750000 0.250000
0.608000 0.750000 0.250000
0.603000 0.750000 0.250000
0.598000 0.750000 0.250000
0.616183 0.700758 0.292157
0.611509 0.695619 0.294118
0.611509 0.695619 0.294118
0.690833 0.817441 0.328482
0.690833 0.817441 0.328482
0.652197 0.821924 0.220509
0.699250 0.875000 0.250000
0.694250 0.875000 0.250000
0.697273 0.804540 0.413960
0.616183 0.700758 0.292157
0.622969 0.701931 0.311403
0.611509 0.695619 0.294118
0.690833 0.817441 0.328482
0.690833 0.817441 0.328482
0.692996 0.878431 0.223529
0.692996 0.878431 0.223529
0.692996 0.878431 0.223529
0.622879 0.894117 0.027454
0.123841 0.084853 0.172855
0.224977 0.180646 0.270527
0.193185 0.135295 0.307844
0.191596 0.133333 0.307843
0.191596 0.133334 0.307844
0.242126 0.170858 0.382621
0.115362 0.095977 0.198849
0.242388 0.237255 0.282353
0.269983 0.258293 0.328881
0.275000 0.223989 0.316146
0.222000 0.125000 0.375000
0.217000 0.125000 0.375000
0.212000 0.125000 0.375000
0.207000 0.125000 0.375000
0.242127 0.170858 0.382623
0.242388 0.237254 0.282353
0.271639 0.257287 0.333131
0.269984 0.258294 0.328882
0.325353 0.266667 0.362745
0.313250 0.250000 0.375000
0.308250 0.250000 0.375000
0.303250 0.250000 0.375000
0.298250 0.250000 0.375000
0.293250 0.250000 0.375000
0.288250 0.250000 0.375000
0.283250 0.250000 0.375000
0.275676 0.262206 0.336716
0.326076 0.268629 0.360785
0.404500 0.375000 0.375000
0.399500 0.375000 0.375000
0.394500 0.375000 0.375000
0.389500 0.375000 0.375000
0.384500 0.375000 0.375000
0.379500 0.375000 0.375000
0.374500 0.375000 0.375000
0.278464 0.264707 0.339216
0.558952 0.633331 0.270590
0.495750 0.500000 0.375000
0.490750 0.500000 0.375000
0.485750 0.500000 0.375000
0.480750 0.500000 0.375000
0.475750 0.500000 0.375000
0.470750 0.500000 0.375000
0.465750 0.500000 0.375000
0.475006 0.543064 0.315615
0.609627 0.689252 0.298039
0.587000 0.625000 0.375000
0.582000 0.625000 0.375000
0.577000 0.625000 0.375000
0.572000 0.625000 0.375000
0.567000 0.625000 0.375000
0.562000 0.625000 0.375000
0.557000 0.625000 0.375000
0.584441 0.685097 0.333658
0.617667 0.699280 0.298039
0.610839 0.687805 0.308942
0.673250 0.750000 0.375000
0.668250 0.750000 0.375000
0.663250 0.750000 0.375000
0.658250 0.750000 0.375000
0.653250 0.750000 0.375000
0.648250 0.750000 0.375000
0.643250 0.750000 0.375000
0.622969 0.701931 0.311403
0.622969 0.701931 0.311403
0.610839 0.687804 0.308942
0.690833 0.817441 0.328482
0.690833 0.817441 0.328482
0.690834 0.817441 0.328482
0.744500 0.875000 0.375000
0.739500 0.875000 0.375000
0.697273 0.804539 0.413962
0.622969 0.701931 0.311403
0.622969 0.701931 0.311403
0.622969 0.701931 0.311403
0.690833 0.817441 0.328482
0.690833 0.817441 0.328482
0.761406 0.882260 0.404458
0.761406 0.882260 0.404458
0.761406 0.882260 0.404458
0.789414 0.877403 0.520057
0.276119 0.087292 0.589104
0.276119 0.087292 0.589104
0.298551 0.211069 0.436109
0.310039 0.211765 0.470588
0.242127 0.170858 0.382623
0.242127 0.170858 0.382623
0.242128 0.170859 0.382624
0.337226 0.229188 0.575616
0.337226 0.229188 0.575616
0.276119 0.087292 0.589104
0.267250 0.125000 0.500000
0.262250 0.125000 0.500000
0.257250 0.125000 0.500000
0.242128 0.170858 0.382624
0.242127 0.170858 0.382623
0.337225 0.229188 0.575614
0.337226 0.229188 0.575616
0.337226 0.229188 0.575616
0.455105 0.374509 0.503920
0.358500 0.250000 0.500000
0.353500 0.250000 0.500000
0.348500 0.250000 0.500000
0.343500 0.250000 0.500000
0.338500 0.250000 0.500000
0.333500 0.250000 0.500000
0.328500 0.250000 0.500000
0.337226 0.229188 0.575616
0.455106 0.374510 0.503922
0.449750 0.375000 0.500000
0.444750 0.375000 0.500000
0.439750 0.375000 0.500000
0.434750 0.375000 0.500000
0.429750 0.375000 0.500000
0.424750 0.375000 0.500000
0.419750 0.375000 0.500000
0.337228 0.229190 0.575615
0.455106 0.374510 0.503922
0.541000 0.500000 0.500000
0.536000 0.500000 0.500000
0.531000 0.500000 0.500000
0.526000 0.500000 0.500000
0.521000 0.500000 0.500000
0.516000 0.500000 0.500000
0.511000 0.500000 0.500000
0.545557 0.535901 0.529793
0.622969 0.701929 0.311406
0.632250 0.625000 0.500000
0.627250 0.625000 0.500000
0.622250 0.625000 0.500000
0.617250 0.625000 0.500000
0.612250 0.625000 0.500000
0.607250 0.625000 0.500000
0.602250 0.625000 0.500000
0.634108 0.647058 0.550446
0.622969 0.701931 0.311403
0.610840 0.687805 0.308944
0.718500 0.750000 0.500000
0.713500 0.750000 0.500000
0.708500 0.750000 0.500000
0.703500 0.750000 0.500000
0.698500 0.750000 0.500000
0.693500 0.750000 0.500000
0.722609 0.795122 0.502289
0.622969 0.701931 0.311403
0.622970 0.701931 0.311404
0.824353 0.780456 0.736105
0.824352 0.780456 0.736103
0.690834 0.817441 0.328482
0.794732 0.875000 0.500000
0.789750 0.875000 0.500000
0.784750 0.875000 0.500000
0.789415 0.877403 0.520058
0.622969 0.701931 0.311403
0.622970 0.701931 0.311406
0.824353 0.780456 0.736105
0.824352 0.780456 0.736102
0.761405 0.882259 0.404457
0.761406 0.882260 0.404458
0.761406 0.882260 0.404458
0.789415 0.877403 0.520058
0.789415 0.877403 0.520058
0.285750 0.082353 0.624473
0.287125 0.086275 0.621569
0.287125 0.086275 0.621569
0.325808 0.223529 0.492157
0.325808 0.223529 0.492156
0.242127 0.170858 0.382623
0.337226 0.229188 0.575616
0.337226 0.229188 0.575616
0.337226 0.229188 0.575616
0.297184 0.094118 0.631372
0.312500 0.125000 0.625000
0.307501 0.125001 0.624999
0.325808 0.223529 0.492157
0.325808 0.223529 0.492157
0.242127 0.170858 0.382623
0.337227 0.229188 0.575616
0.337226 0.229188 0.575616
0.337226 0.229188 0.575616
0.467513 0.298038 0.698039
0.403750 0.250000 0.625000
0.398750 0.250000 0.625000
0.393750 0.250000 0.625000
0.388750 0.250000 0.625000
0.383750 0.250000 0.625000
0.378750 0.250000 0.625000
0.373750 0.250000 0.625000
0.337227 0.229188 0.575616
0.455106 0.374509 0.503923
0.495000 0.375000 0.625000
0.490000 0.375000 0.625000
0.485000 0.375000 0.625000
0.480000 0.375000 0.625000
0.475000 0.375000 0.625000
0.470000 0.375000 0.625000
0.465000 0.375000 0.625000
0.437373 0.301961 0.705882
0.686413 0.565244 0.758480
0.586250 0.500000 0.625000
0.581250 0.500000 0.625000
0.576250 0.500000 0.625000
0.571250 0.500000 0.625000
0.566250 0.500000 0.625000
0.561250 0.500000 0.625000
0.556250 0.500000 0.625000
0.545557 0.535901 0.529794
0.692778 0.572001 0.761451
0.677500 0.625000 0.625000
0.672500 0.625000 0.625000
0.667500 0.625000 0.625000
0.662500 0.625000 0.625000
0.657500 0.625000 0.625000
0.652500 0.625000 0.625000
0.647500 0.625000 0.625000
0.652870 0.640791 0.618157
0.716359 0.593713 0.784314
0.824352 0.780456 0.736104
0.763750 0.750000 0.625000
0.758750 0.750000 0.625000
0.753750 0.750000 0.625000
0.748750 0.750000 0.625000
0.743750 0.750000 0.625000
0.738750 0.750000 0.625000
0.722903 0.731074 0.629198
0.716359 0.593715 0.784312
0.824353 0.780456 0.736105
0.824353 0.780456 0.736105
0.824353 0.780456 0.736105
0.757240 0.702857 0.737860
0.839987 0.874999 0.625000
0.834978 0.875000 0.625000
0.829958 0.875000 0.625000
0.825000 0.875000 0.625000
0.824353 0.780456 0.736105
0.824353 0.780456 0.736105
0.877287 0.827613 0.790236
0.877288 0.827614 0.790237
0.879239 0.828079 0.795450
0.761406 0.882260 0.404459
0.803553 0.809028 0.683784
0.867822 0.898024 0.692643
0.881001 0.917090 0.694755
0.289322 0.084314 0.631373
0.289322 0.084314 0.631373
0.289322 0.084314 0.631373
0.325808 0.223529 0.492157
0.325808 0.223529 0.492157
0.325809 0.223530 0.492159
0.433516 0.296140 0.701541
0.337227 0.229189 0.575617
0.337227 0.229188 0.575616
0.297184 0.094118 0.631373
0.293650 0.090198 0.631373
0.455027 0.282146 0.699830
0.325808 0.223529 0.492157
0.325808 0.223529 0.492157
0.433516 0.296140 0.701541
0.433516 0.296140 0.701541
0.433516 0.296140 0.701541
0.428649 0.291139 0.703053
0.504628 0.323264 0.749373
0.455027 0.282146 0.699831
0.502568 0.310846 0.774510
0.325811 0.223531 0.492160
0.325810 0.223532 0.492158
0.437006 0.298983 0.705463
0.437004 0.298981 0.705463
0.437004 0.298981 0.705463
0.443133 0.301961 0.723529
0.504629 0.323264 0.749374
0.540250 0.375000 0.750000
0.535250 0.375000 0.750000
0.530250 0.375000 0.750000
0.525250 0.375001 0.750000
0.520250 0.375001 0.750000
0.515250 0.375000 0.750000
0.510249 0.375000 0.750000
0.451327 0.311476 0.727162
0.687026 0.560597 0.768440
0.631500 0.500000 0.750000
0.626500 0.500000 0.750000
0.621500 0.500000 0.750000
0.616500 0.500000 0.750000
0.611500 0.500000 0.750000
0.606500 0.500000 0.750000
0.601500 0.500000 0.750000
0.451329 0.311479 0.727161
0.716359 0.593713 0.784314
0.722750 0.625000 0.750000
0.717750 0.625000 0.750000
0.712750 0.625000 0.750000
0.707750 0.625000 0.750000
0.702750 0.625000 0.750000
0.697750 0.625000 0.750000
0.692750 0.625000 0.750000
0.769243 0.753558 0.714566
0.716359 0.593713 0.784314
0.824352 0.780455 0.736105
0.809000 0.750000 0.750000
0.804000 0.750000 0.750000
0.799000 0.750000 0.750000
0.794000 0.750000 0.750000
0.786504 0.750000 0.750000
0.784000 0.750000 0.750000
0.769244 0.753559 0.714567
0.716359 0.593714 0.784314
0.824353 0.780456 0.736105
0.879513 0.827451 0.796078
0.879239 0.828079 0.795450
0.890241 0.875000 0.750000
0.885223 0.874999 0.750000
0.880214 0.875000 0.750000
0.875212 0.875000 0.750000
0.855461 0.857156 0.741635
0.885294 0.831373 0.803922
0.885294 0.831373 0.803922
0.908863 0.854902 0.823529
0.908863 0.854902 0.823529
0.908863 0.854902 0.823529
0.874713 0.815011 0.853028
0.882549 0.843577 0.827891
0.924759 0.921635 0.801537
0.941391 0.958034 0.777900
0.289322 0.084314 0.631373
0.289322 0.084314 0.631373
0.289324 0.084316 0.631374
0.502569 0.310846 0.774510
0.325808 0.223529 0.492157
0.433516 0.296140 0.701541
0.433516 0.296140 0.701541
0.433516 0.296140 0.701541
0.443133 0.301961 0.723529
0.512209 0.318259 0.782966
0.502569 0.310846 0.774510
0.502569 0.310846 0.774510
0.502569 0.310846 0.774510
0.325808 0.223529 0.492157
0.437004 0.298981 0.705463
0.437004 0.298981 0.705463
0.437004 0.298981 0.705463
0.443133 0.301961 0.723529
0.512211 0.318261 0.782967
0.502569 0.310846 0.774510
0.502569 0.310846 0.774510
0.502569 0.310846 0.774510
0.654113 0.550265 0.759961
0.654112 0.550264 0.759961
0.437004 0.298981 0.705463
0.438000 0.299927 0.706410
0.451327 0.311475 0.727162
0.512363 0.323529 0.771477
0.512211 0.318261 0.782967
0.502569 0.310846 0.774510
0.668596 0.558824 0.758824
0.654113 0.550265 0.759961
0.699629 0.578914 0.832041
0.438003 0.299931 0.706411
0.438000 0.299927 0.706410
0.451327 0.311475 0.727162
0.696882 0.566667 0.784314
0.693376 0.563943 0.783551
0.670395 0.562929 0.753830
0.705251 0.591269 0.797152
0.699629 0.578914 0.832041
0.699629 0.578915 0.832042
0.703767 0.584834 0.831967
0.451329 0.311478 0.727162
0.451327 0.311475 0.727162
0.721102 0.594118 0.796078
0.693377 0.563944 0.783551
0.705251 0.591269 0.797152
0.705251 0.591270 0.797152
0.735692 0.625000 0.875000
0.720808 0.601961 0.845098
0.778604 0.721741 0.776012
0.779302 0.744001 0.742316
0.769244 0.753559 0.714567
0.721102 0.594118 0.796078
0.721103 0.594119 0.796079
0.885294 0.831373 0.803922
0.891039 0.831892 0.820277
0.844250 0.750000 0.875000
0.830026 0.750000 0.875000
0.826214 0.750000 0.875000
0.828808 0.750000 0.875000
0.796066 0.776891 0.739427
0.721102 0.594118 0.796078
0.885294 0.831373 0.803922
0.904016 0.849020 0.821569
0.908863 0.854902 0.823529
0.881302 0.789343 0.904518
0.919485 0.875000 0.875000
0.924378 0.875000 0.875000
0.914770 0.875000 0.875000
0.943074 0.911679 0.872120
0.885294 0.831373 0.803922
0.908863 0.854902 0.823529
0.908863 0.854902 0.823529
0.908863 0.854902 0.823529
0.881302 0.789343 0.904517
0.852633 0.808122 0.878710
0.932781 0.884433 0.887955
0.961817 0.925339 0.921417
0.989284 0.981703 0.879649
0.289322 0.084315 0.631373
0.502568 0.310845 0.774509
0.502569 0.310846 0.774510
0.502569 0.310846 0.774510
0.502569 0.310846 0.774510
0.437004 0.298981 0.705463
0.437004 0.298981 0.705463
0.437004 0.298981 0.705463
0.443133 0.301961 0.723529
0.512211 0.318261 0.782967
0.502569 0.310846 0.774510
0.502569 0.310846 0.774510
0.502569 0.310846 0.774510
0.502570 0.310848 0.774510
0.437004 0.298981 0.705463
0.437004 0.298981 0.705463
0.438000 0.299927 0.706410
0.443133 0.301961 0.723529
0.512211 0.318261 0.782967
0.512211 0.318261 0.782967
0.502569 0.310846 0.774510
0.502569 0.310846 0.774510
0.699629 0.578915 0.832042
0.699629 0.578915 0.832042
0.438000 0.299927 0.706410
0.451327 0.311475 0.727161
0.451327 0.311475 0.727162
0.512211 0.318261 0.782967
0.512211 0.318261 0.782967
0.502569 0.310846 0.774510
0.705251 0.591269 0.797152
0.699629 0.578915 0.832042
0.699629 0.578915 0.832042
0.699629 0.578915 0.832042
0.451327 0.311475 0.727162
0.451327 0.311475 0.727162
0.711651 0.581021 0.795642
0.693376 0.563943 0.783551
0.705251 0.591269 0.797152
0.705251 0.591269 0.797152
0.699629 0.578915 0.832042
0.720808 0.601961 0.845098
0.720808 0.601961 0.845098
0.720807 0.601960 0.845098
0.451329 0.311477 0.727162
0.721102 0.594118 0.796078
0.721102 0.594118 0.796078
0.705251 0.591269 0.797152
0.705251 0.591269 0.797152
0.721844 0.603922 0.843138
0.720808 0.601961 0.845098
0.720808 0.601962 0.845098
0.868809 0.815015 0.852493
0.868809 0.815015 0.852493
0.721102 0.594118 0.796078
0.721103 0.594119 0.796079
0.891040 0.831893 0.820277
0.891039 0.831893 0.820277
0.881301 0.789342 0.904518
0.881301 0.789342 0.904518
0.879826 0.811293 0.874128
0.919236 0.879772 0.912063
0.976465 0.927141 0.936901
0.721102 0.594118 0.796078
0.904016 0.849020 0.821569
0.908863 0.854902 0.823529
0.908863 0.854902 0.823529
0.881301 0.789342 0.904518
0.881301 0.789342 0.904518
0.919236 0.879772 0.912064
0.977679 0.931719 0.953288
0.976466 0.927141 0.936902
0.904016 0.849020 0.821569
0.908863 0.854902 0.823529
0.908863 0.854902 0.823529
0.908863 0.854902 0.823529
0.881301 0.789342 0.904518
0.852633 0.808122 0.878710
0.919236 0.879773 0.912064
0.972848 0.948583 0.955438
1.000000 1.000000 1.000000
