lut_files/generated_lut.cube
# Generated by Orion4D_MetaNode LUT Generator
LUT_3D_SIZE 33
DOMAIN_MIN 0.0 0.0 0.0
DOMAIN_MAX 1.0 1.0 1.0
0.000000 0.000000 0.000000
0.006325 0.008553 0.003025
0.003504 0.006659 0.001825
0.017767 0.027055 0.003922
0.010196 0.017901 0.000000
0.012959 0.010894 0.024837
0.010127 0.009510 0.025196
0.010127 0.009510 0.025197
0.023365 0.021569 0.049343
0.023365 0.021569 0.049343
0.023365 0.021569 0.049344
0.023724 0.015065 0.066253
0.023725 0.015065 0.066253
0.063155 0.060797 0.094113
0.070835 0.076860 0.086859
0.070835 0.076860 0.086859
0.070835 0.076860 0.086859
0.070835 0.076860 0.086859
0.070759 0.058268 0.127181
0.099056 0.090402 0.145304
0.099056 0.090402 0.145305
0.115362 0.095977 0.198848
0.116875 0.135026 0.136987
0.116875 0.135026 0.136987
0.116875 0.135026 0.136987
0.116875 0.135026 0.136987
0.116875 0.135026 0.136987
0.116875 0.135026 0.136987
0.122824 0.143137 0.147059
0.122824 0.143137 0.147059
0.124345 0.145098 0.152941
0.124345 0.145098 0.152941
0.124345 0.145098 0.152941
0.014134 0.014464 0.010542
0.016676 0.019022 0.010074
0.020884 0.031250 0.000000
0.020205 0.031250 0.000000
0.019525 0.031250 0.000000
0.032971 0.043438 0.018363
0.038556 0.053268 0.017974
0.010127 0.009511 0.025196
0.051907 0.076470 0.015182
0.051874 0.071075 0.030385
0.051874 0.071074 0.030385
0.023725 0.015066 0.066252
0.023725 0.015066 0.066253
0.070835 0.076860 0.086858
0.070835 0.076860 0.086859
0.070835 0.076860 0.086859
0.070835 0.076860 0.086859
0.070835 0.076860 0.086859
0.099056 0.090402 0.145304
0.099056 0.090402 0.145304
0.099056 0.090402 0.145305
0.115362 0.095977 0.198848
0.116875 0.135026 0.136987
0.116875 0.135026 0.136987
0.116875 0.135026 0.136987
0.116875 0.135026 0.136987
0.116875 0.135026 0.136987
0.116875 0.135026 0.136987
0.122824 0.143137 0.147059
0.122824 0.143137 0.147059
0.124345 0.145098 0.152941
0.124345 0.145098 0.152941
0.124345 0.145098 0.152941
0.062902 0.072549 0.029412
0.034402 0.046781 0.006568
0.046293 0.059425 0.015807
0.042244 0.062500 0.000000
0.041565 0.062500 0.000000
0.040886 0.062500 0.000000
0.039947 0.062500 0.000000
0.051907 0.076470 0.015182
0.051908 0.076471 0.015182
0.051874 0.071075 0.030385
0.051874 0.071075 0.030385
0.051874 0.071075 0.030386
0.093052 0.113509 0.066451
0.070835 0.076860 0.086858
0.070835 0.076860 0.086859
0.070835 0.076860 0.086859
0.070835 0.076860 0.086859
0.070835 0.076860 0.086859
0.099056 0.090402 0.145304
0.099056 0.090402 0.145304
0.099056 0.090402 0.145304
0.116875 0.135026 0.136987
0.116875 0.135026 0.136987
0.116875 0.135026 0.136987
0.116875 0.135026 0.136987
0.116875 0.135026 0.136987
0.116875 0.135026 0.136987
0.116875 0.135026 0.136987
0.122824 0.143137 0.147059
0.122824 0.143137 0.147059
0.124345 0.145098 0.152941
0.124345 0.145098 0.152941
0.124345 0.145098 0.152941
0.062902 0.072549 0.029412
0.061314 0.070588 0.029412
0.052318 0.067037 0.017775
0.052318 0.067037 0.017774
0.063605 0.093750 0.000000
0.062926 0.093750 0.000000
0.062247 0.093750 0.000000
0.061438 0.093750 0.000000
0.060119 0.093750 0.000000
0.086637 0.127143 0.013674
0.086637 0.127143 0.013674
0.095291 0.117633 0.063718
0.093052 0.113510 0.066450
0.118431 0.168490 0.030112
0.070835 0.076861 0.086858
0.070835 0.076860 0.086858
0.070835 0.076860 0.086858
0.070835 0.076860 0.086859
0.099056 0.090402 0.145304
0.099056 0.090402 0.145304
0.099056 0.090402 0.145304
0.116875 0.135026 0.136987
0.116875 0.135026 0.136987
0.116875 0.135026 0.136987
0.116875 0.135026 0.136987
0.116875 0.135026 0.136987
0.116875 0.135026 0.136987
0.116875 0.135026 0.136987
0.122824 0.143137 0.147059
0.122824 0.143137 0.147059
0.124345 0.145098 0.152941
0.124345 0.145098 0.152941
0.124345 0.145098 0.152941
0.062902 0.072549 0.029412
0.062902 0.072549 0.029412
0.080450 0.089748 0.047865
0.052319 0.067037 0.017775
0.057565 0.084314 0.007843
0.057565 0.084314 0.007843
0.084286 0.125000 0.000000
0.083607 0.125000 0.000000
0.082928 0.125000 0.000000
0.081611 0.125000 0.000000
0.086638 0.127143 0.013674
0.095292 0.117633 0.063718
0.118431 0.168491 0.030111
0.118431 0.168491 0.030111
0.118431 0.168491 0.030111
0.118431 0.168491 0.030111
0.109991 0.134086 0.077948
0.109990 0.134086 0.077949
0.099056 0.090403 0.145304
0.099056 0.090402 0.145304
0.099056 0.090403 0.145304
0.116875 0.135026 0.136987
0.116875 0.135026 0.136987
0.116875 0.135026 0.136987
0.116875 0.135026 0.136987
0.116875 0.135026 0.136987
0.116875 0.135026 0.136987
0.116875 0.135026 0.136987
0.122824 0.143137 0.147059
0.128881 0.152142 0.149286
0.124345 0.145098 0.152941
0.124345 0.145098 0.152941
0.124345 0.145098 0.152941
0.062903 0.072550 0.029412
0.080451 0.089749 0.047866
0.080451 0.089749 0.047866
0.078915 0.087755 0.047866
0.098839 0.122288 0.045167
0.098838 0.122288 0.045167
0.092631 0.127451 0.021825
0.105647 0.156250 0.000000
0.104968 0.156250 0.000000
0.104289 0.156250 0.000000
0.103102 0.156250 0.000000
0.101783 0.156250 0.000000
0.118431 0.168491 0.030111
0.118431 0.168491 0.030111
0.118431 0.168491 0.030111
0.118431 0.168491 0.030111
0.118432 0.168491 0.030111
0.118432 0.168491 0.030112
0.187733 0.249368 0.063441
0.099057 0.090404 0.145304
0.116875 0.135026 0.136987
0.116875 0.135026 0.136987
0.116875 0.135026 0.136987
0.116875 0.135026 0.136987
0.116875 0.135026 0.136987
0.116875 0.135026 0.136987
0.116875 0.135026 0.136987
0.122823 0.143137 0.147059
0.122824 0.143137 0.147059
0.128881 0.152142 0.149286
0.128881 0.152142 0.149286
0.124345 0.145098 0.152941
0.124345 0.145098 0.152941
0.193597 0.217030 0.102871
0.193597 0.217030 0.102871
0.173729 0.203921 0.080392
0.173729 0.203921 0.080392
0.173729 0.203921 0.080392
0.098839 0.122289 0.045167
0.092632 0.127451 0.021825
0.092632 0.127452 0.021825
0.127008 0.187500 0.000000
0.126329 0.187500 0.000000
0.125650 0.187500 0.000000
0.124593 0.187500 0.000000
0.123275 0.187500 0.000000
0.121956 0.187500 0.000000
0.118431 0.168492 0.030111
0.118432 0.168492 0.030111
0.187734 0.249369 0.063440
0.187734 0.249369 0.063440
0.187734 0.249370 0.063441
0.187735 0.249370 0.063441
0.220085 0.264019 0.128725
0.116875 0.135026 0.136987
0.116875 0.135026 0.136987
0.116875 0.135026 0.136987
0.116875 0.135026 0.136987
0.116875 0.135026 0.136987
0.116875 0.135026 0.136987
0.122824 0.143137 0.147059
0.122824 0.143137 0.147059
0.128881 0.152142 0.149286
0.128881 0.152142 0.149286
0.124345 0.145098 0.152941
0.124345 0.145098 0.152941
0.193598 0.217030 0.102871
0.193598 0.217030 0.102871
0.173729 0.203922 0.080392
0.173729 0.203922 0.080392
0.173729 0.203922 0.080392
0.173729 0.203921 0.080392
0.092632 0.127452 0.021826
0.092632 0.127452 0.021825
0.112899 0.153594 0.033923
0.150847 0.191248 0.064553
0.147689 0.218750 0.000000
0.147010 0.218750 0.000000
0.146085 0.218750 0.000000
0.144766 0.218750 0.000000
0.143447 0.218750 0.000000
0.142129 0.218750 0.000000
0.187734 0.249370 0.063440
0.187734 0.249370 0.063440
0.187735 0.249371 0.063441
0.257897 0.337681 0.086783
0.257897 0.337681 0.086784
0.116876 0.135028 0.136986
0.116875 0.135026 0.136987
0.116875 0.135026 0.136987
0.116875 0.135026 0.136987
0.116875 0.135026 0.136987
0.116875 0.135026 0.136987
0.127419 0.148388 0.149020
0.127419 0.148388 0.149020
0.128881 0.152142 0.149286
0.128881 0.152142 0.149286
0.128881 0.152142 0.149286
0.124345 0.145098 0.152941
0.193598 0.217030 0.102871
0.193598 0.217030 0.102871
0.173730 0.203922 0.080392
0.173729 0.203922 0.080392
0.173729 0.203922 0.080392
0.173729 0.203922 0.080392
0.173729 0.203921 0.080392
0.150847 0.191248 0.064553
0.150847 0.191248 0.064553
0.160109 0.206442 0.062045
0.149437 0.211448 0.027533
0.169050 0.250000 0.000000
0.168371 0.250000 0.000000
0.167576 0.250000 0.000000
0.166257 0.250000 0.000000
0.164939 0.250000 0.000000
0.163620 0.250000 0.000001
0.187734 0.249370 0.063440
0.257896 0.337681 0.086783
0.257897 0.337682 0.086783
0.257897 0.337682 0.086783
0.257897 0.337681 0.086784
0.116876 0.135028 0.136986
0.116875 0.135026 0.136987
0.116875 0.135026 0.136987
0.116875 0.135026 0.136987
0.116875 0.135026 0.136987
0.127419 0.148388 0.149020
0.127419 0.148388 0.149020
0.128881 0.152142 0.149286
0.128881 0.152142 0.149286
0.128881 0.152142 0.149286
0.126767 0.147401 0.155242
0.193598 0.217030 0.102871
0.193598 0.217031 0.102871
0.173730 0.203922 0.080393
0.173730 0.203922 0.080392
0.173729 0.203922 0.080392
0.173729 0.203922 0.080392
0.173729 0.203922 0.080392
0.150848 0.191249 0.064554
0.150848 0.191249 0.064553
0.160110 0.206443 0.062045
0.218001 0.314196 0.010599
0.218001 0.314197 0.010598
0.190411 0.281250 0.000000
0.189732 0.281250 0.000000
0.189052 0.281250 0.000000
0.187749 0.281250 0.000000
0.186430 0.281250 0.000000
0.185112 0.281250 0.000000
0.183793 0.281251 0.000001
0.257897 0.337682 0.086782
0.257897 0.337682 0.086783
0.257898 0.337683 0.086783
0.342095 0.489079 0.030861
0.116876 0.135029 0.136986
0.116876 0.135027 0.136986
0.116876 0.135027 0.136986
0.116875 0.135026 0.136987
0.127420 0.148389 0.149019
0.128721 0.150237 0.150235
0.128881 0.152143 0.149285
0.128881 0.152143 0.149285
0.128882 0.152145 0.149285
0.323324 0.490844 0.009029
0.193599 0.217031 0.102872
0.273548 0.313431 0.132254
0.273548 0.313431 0.132254
0.273548 0.313431 0.132253
0.173731 0.203923 0.080393
0.173730 0.203922 0.080393
0.173730 0.203923 0.080392
0.299250 0.374508 0.105882
0.218002 0.314197 0.010600
0.218002 0.314197 0.010599
0.218002 0.314197 0.010599
0.218002 0.314197 0.010599
0.218002 0.314197 0.010599
0.224208 0.325490 0.005882
0.211092 0.312500 0.000000
0.210413 0.312500 0.000000
0.209240 0.312500 0.000000
0.207922 0.312500 0.000000
0.206603 0.312500 0.000000
0.205284 0.312500 0.000000
0.203966 0.312501 0.000001
0.342096 0.489081 0.030860
0.342097 0.489082 0.030860
0.342096 0.489081 0.030861
0.342096 0.489081 0.030861
0.342095 0.489079 0.030861
0.116877 0.135030 0.136985
0.323324 0.490843 0.009029
0.323326 0.490846 0.009028
0.323326 0.490846 0.009028
0.323326 0.490846 0.009028
0.323326 0.490846 0.009028
0.323327 0.490847 0.009027
0.273548 0.313431 0.132254
0.273549 0.313432 0.132254
0.273549 0.313432 0.132254
0.273549 0.313432 0.132254
0.273548 0.313431 0.132254
0.273549 0.313432 0.132254
0.299250 0.374509 0.105882
0.299251 0.374510 0.105882
0.299250 0.374509 0.105882
0.224209 0.325491 0.005883
0.224208 0.325490 0.005883
0.224208 0.325490 0.005882
0.224208 0.325490 0.005882
0.224208 0.325490 0.005882
0.238470 0.347059 0.009804
0.232453 0.343750 0.000000
0.231774 0.343750 0.000000
0.230732 0.343750 0.000000
0.229413 0.343750 0.000000
0.228094 0.343750 0.000000
0.226776 0.343750 0.000000
0.225457 0.343751 0.000000
0.224139 0.343751 0.000000
0.342097 0.489081 0.030860
0.342097 0.489082 0.030860
0.342097 0.489082 0.030860
0.339870 0.509802 0.013727
0.323327 0.490847 0.009027
0.323327 0.490847 0.009027
0.323327 0.490847 0.009027
0.323327 0.490847 0.009027
0.323327 0.490847 0.009027
0.323327 0.490847 0.009027
0.273549 0.313432 0.132254
0.273549 0.313432 0.132254
0.273549 0.313432 0.132254
0.273549 0.313432 0.132254
0.273549 0.313432 0.132254
0.273549 0.313432 0.132254
0.299251 0.374510 0.105882
0.299251 0.374510 0.105882
0.299251 0.374510 0.105882
0.299250 0.374509 0.105882
0.224209 0.325491 0.005883
0.224208 0.325490 0.005882
0.224208 0.325490 0.005882
0.224208 0.325491 0.005882
0.238471 0.347059 0.009804
0.238471 0.347059 0.009804
0.253813 0.375000 0.000000
0.253134 0.375000 0.000000
0.252223 0.375000 0.000000
0.250904 0.375000 0.000000
0.249586 0.375000 0.000000
0.248267 0.375000 0.000000
0.246948 0.375000 0.000000
0.245630 0.375001 0.000000
0.342097 0.489082 0.030860
0.342097 0.489082 0.030860
0.339870 0.509803 0.013726
0.339870 0.509803 0.013726
0.323327 0.490847 0.009027
0.323327 0.490847 0.009027
0.323327 0.490847 0.009027
0.323327 0.490847 0.009027
0.323327 0.490847 0.009027
0.273549 0.313432 0.132254
0.273549 0.313432 0.132254
0.273549 0.313432 0.132254
0.273549 0.313432 0.132254
0.273549 0.313432 0.132254
0.273549 0.313432 0.132254
0.299251 0.374510 0.105883
0.299251 0.374510 0.105882
0.299251 0.374510 0.105882
0.299251 0.374510 0.105882
0.299251 0.374510 0.105882
0.224209 0.325491 0.005883
0.224209 0.325491 0.005883
0.238471 0.347059 0.009804
0.238471 0.347059 0.009804
0.238471 0.347059 0.009804
0.238471 0.347059 0.009804
0.238471 0.347059 0.009804
0.274495 0.406250 0.000000
0.273714 0.406250 0.000000
0.272396 0.406250 0.000000
0.271077 0.406250 0.000000
0.269758 0.406250 0.000000
0.268440 0.406250 0.000000
0.267121 0.406250 0.000000
0.265803 0.406251 0.000000
0.339870 0.509803 0.013725
0.339870 0.509803 0.013725
0.323327 0.490847 0.009027
0.323326 0.490847 0.009027
0.323327 0.490847 0.009027
0.323327 0.490847 0.009027
0.323327 0.490847 0.009027
0.273549 0.313432 0.132254
0.273549 0.313432 0.132254
0.273549 0.313432 0.132254
0.273549 0.313432 0.132254
0.273549 0.313432 0.132254
0.357223 0.417646 0.170588
0.299252 0.374510 0.105883
0.299251 0.374510 0.105882
0.299251 0.374510 0.105882
0.299251 0.374510 0.105882
0.354173 0.467178 0.078697
0.354173 0.467178 0.078697
0.354173 0.467178 0.078697
0.354172 0.467178 0.078696
0.238472 0.347060 0.009805
0.238471 0.347060 0.009804
0.238471 0.347059 0.009804
0.238472 0.347060 0.009804
0.342097 0.489082 0.030860
0.295856 0.437500 0.000000
0.295177 0.437500 0.000000
0.293887 0.437500 0.000000
0.292568 0.437500 0.000000
0.291250 0.437500 0.000000
0.289931 0.437500 0.000000
0.288612 0.437500 0.000000
0.287294 0.437500 0.000000
0.285975 0.437501 0.000000
0.339870 0.509803 0.013725
0.323326 0.490847 0.009027
0.323326 0.490847 0.009027
0.323326 0.490847 0.009027
0.323327 0.490847 0.009027
0.273549 0.313432 0.132254
0.273549 0.313432 0.132254
0.273549 0.313432 0.132254
0.273549 0.313432 0.132254
0.273550 0.313433 0.132254
0.357223 0.417647 0.170588
0.357223 0.417647 0.170588
0.299252 0.374510 0.105883
0.299251 0.374510 0.105882
0.354173 0.467178 0.078697
0.354173 0.467179 0.078697
0.354173 0.467179 0.078697
0.354173 0.467179 0.078697
0.354173 0.467179 0.078697
0.354173 0.467179 0.078697
0.354172 0.467178 0.078696
0.238472 0.347061 0.009805
0.342097 0.489082 0.030860
0.342098 0.489083 0.030860
0.342097 0.489083 0.030860
0.317217 0.468750 0.000000
0.316537 0.468750 0.000000
0.315378 0.468750 0.000000
0.314060 0.468750 0.000000
0.312741 0.468750 0.000000
0.311422 0.468750 0.000000
0.310104 0.468750 0.000000
0.308785 0.468750 0.000000
0.307467 0.468750 0.000000
0.306148 0.468750 0.000000
0.323327 0.490847 0.009027
0.323327 0.490847 0.009027
0.340721 0.517647 0.007843
0.273550 0.313432 0.132254
0.273550 0.313432 0.132254
0.273550 0.313432 0.132254
0.273550 0.313433 0.132254
0.357223 0.417646 0.170588
0.357224 0.417647 0.170588
0.357224 0.417647 0.170588
0.354173 0.467178 0.078698
0.354173 0.467179 0.078697
0.354173 0.467179 0.078697
0.354173 0.467179 0.078697
0.354173 0.467179 0.078697
0.354173 0.467179 0.078697
0.354173 0.467179 0.078697
0.354173 0.467179 0.078697
0.354173 0.467179 0.078697
0.354173 0.467179 0.078696
0.342098 0.489083 0.030860
0.342098 0.489083 0.030860
0.342098 0.489083 0.030860
0.342098 0.489083 0.030860
0.342098 0.489083 0.030860
0.337898 0.500000 0.000000
0.336870 0.500000 0.000000
0.335551 0.500000 0.000000
0.334232 0.500000 0.000000
0.332914 0.500000 0.000000
0.331595 0.500000 0.000000
0.330276 0.500000 0.000000
0.328958 0.500000 0.000000
0.327639 0.500000 0.000000
0.323327 0.490848 0.009027
0.340722 0.517647 0.007843
0.376325 0.409314 0.221215
0.376325 0.409314 0.221215
0.376325 0.409314 0.221215
0.357223 0.417647 0.170588
0.357224 0.417647 0.170588
0.357224 0.417647 0.170588
0.357224 0.417647 0.170588
0.354173 0.467179 0.078698
0.354173 0.467179 0.078697
0.354173 0.467179 0.078697
0.354173 0.467179 0.078697
0.354173 0.467179 0.078697
0.354173 0.467179 0.078697
0.354173 0.467179 0.078697
0.354173 0.467179 0.078697
0.354173 0.467179 0.078697
0.354173 0.467179 0.078697
0.342098 0.489083 0.030860
0.342098 0.489083 0.030860
0.342098 0.489083 0.030860
0.342098 0.489083 0.030860
0.342098 0.489083 0.030860
0.342098 0.489083 0.030860
0.359259 0.531250 0.000000
0.358361 0.531250 0.000000
0.357042 0.531250 0.000000
0.355724 0.531250 0.000000
0.354405 0.531250 0.000000
0.353086 0.531250 0.000000
0.351768 0.531250 0.000000
0.350449 0.531250 0.000000
0.349130 0.531250 0.000000
0.347813 0.531250 0.000000
0.376327 0.409316 0.221216
0.376326 0.409315 0.221216
0.376326 0.409315 0.221216
0.357224 0.417648 0.170589
0.357224 0.417647 0.170588
0.357224 0.417647 0.170588
0.357224 0.417648 0.170588
0.354174 0.467179 0.078698
0.354173 0.467179 0.078697
0.354173 0.467179 0.078697
0.354173 0.467179 0.078697
0.354173 0.467179 0.078697
0.354173 0.467179 0.078697
0.354173 0.467179 0.078697
0.354173 0.467179 0.078697
0.354173 0.467179 0.078697
0.354173 0.467179 0.078696
0.342098 0.489083 0.030860
0.342098 0.489083 0.030860
0.342098 0.489083 0.030860
0.342098 0.489083 0.030860
0.342098 0.489083 0.030860
0.342098 0.489083 0.030860
0.342098 0.489083 0.030860
0.342098 0.489084 0.030860
0.379852 0.562499 0.000000
0.378534 0.562500 0.000000
0.377215 0.562500 0.000000
0.375897 0.562500 0.000000
0.374578 0.562500 0.000000
0.373259 0.562500 0.000000
0.371940 0.562500 0.000000
0.370625 0.562500 0.000000
0.558952 0.633332 0.270588
0.558952 0.633332 0.270588
0.558952 0.633332 0.270588
0.558952 0.633332 0.270588
0.447239 0.520165 0.215538
0.447238 0.520165 0.215537
0.447238 0.520165 0.215537
0.354174 0.467179 0.078698
0.354173 0.467179 0.078697
0.354173 0.467179 0.078697
0.354173 0.467179 0.078697
0.354173 0.467179 0.078697
0.354173 0.467179 0.078697
0.354173 0.467179 0.078697
0.354173 0.467179 0.078697
0.354173 0.467179 0.078697
0.342098 0.489083 0.030861
0.342098 0.489083 0.030860
0.342098 0.489083 0.030860
0.342098 0.489083 0.030860
0.342098 0.489083 0.030860
0.342098 0.489083 0.030860
0.342098 0.489083 0.030860
0.342098 0.489083 0.030860
0.342098 0.489083 0.030860
0.342099 0.489085 0.030860
0.401301 0.593750 0.000000
0.400025 0.593750 0.000000
0.398707 0.593750 0.000000
0.397388 0.593750 0.000000
0.396069 0.593750 0.000000
0.394751 0.593750 0.000000
0.393438 0.593750 0.000000
0.558953 0.633333 0.270588
0.558953 0.633333 0.270588
0.558953 0.633333 0.270588
0.558953 0.633333 0.270588
0.447239 0.520166 0.215538
0.447238 0.520165 0.215538
0.447238 0.520165 0.215537
0.354174 0.467180 0.078698
0.354174 0.467179 0.078697
0.354173 0.467179 0.078697
0.354173 0.467179 0.078697
0.354173 0.467179 0.078697
0.354173 0.467179 0.078697
0.354173 0.467179 0.078697
0.354173 0.467179 0.078697
0.354173 0.467179 0.078697
0.342098 0.489083 0.030861
0.342098 0.489083 0.030860
0.342098 0.489083 0.030860
0.342098 0.489083 0.030860
0.342098 0.489083 0.030860
0.342098 0.489083 0.030860
0.342098 0.489083 0.030860
0.342098 0.489083 0.030860
0.342099 0.489084 0.030860
0.495784 0.725853 0.009279
0.495785 0.725854 0.009278
0.422662 0.625001 0.000000
0.421517 0.625000 0.000000
0.420198 0.625000 0.000000
0.418879 0.625000 0.000000
0.417561 0.625000 0.000000
0.416250 0.625000 0.000000
0.558953 0.633333 0.270588
0.558953 0.633333 0.270588
0.558953 0.633333 0.270588
0.558953 0.633333 0.270588
0.558952 0.633332 0.270588
0.447239 0.520166 0.215538
0.447238 0.520165 0.215538
0.447238 0.520165 0.215537
0.354174 0.467179 0.078698
0.354173 0.467179 0.078697
0.354173 0.467179 0.078697
0.354173 0.467179 0.078697
0.354173 0.467179 0.078697
0.354173 0.467179 0.078697
0.354173 0.467179 0.078697
0.354173 0.467179 0.078697
0.342098 0.489083 0.030860
0.342098 0.489083 0.030860
0.342098 0.489083 0.030860
0.342098 0.489083 0.030860
0.342098 0.489083 0.030860
0.342098 0.489083 0.030860
0.342098 0.489083 0.030860
0.342098 0.489084 0.030860
0.342099 0.489085 0.030860
0.495785 0.725854 0.009278
0.495785 0.725855 0.009278
0.495785 0.725854 0.009278
0.495785 0.725854 0.009278
0.443008 0.656250 0.000000
0.441689 0.656250 0.000000
0.440371 0.656250 0.000000
0.439063 0.656250 0.000000
0.558953 0.633334 0.270588
0.558953 0.633334 0.270588
0.558953 0.633333 0.270588
0.558953 0.633333 0.270588
0.558953 0.633333 0.270588
0.447240 0.520167 0.215538
0.447238 0.520165 0.215538
0.447238 0.520165 0.215537
0.354174 0.467180 0.078698
0.354174 0.467179 0.078697
0.354173 0.467179 0.078697
0.354173 0.467179 0.078697
0.354173 0.467179 0.078697
0.354173 0.467179 0.078697
0.354173 0.467179 0.078697
0.354174 0.467180 0.078697
0.342100 0.489085 0.030862
0.342100 0.489085 0.030861
0.342100 0.489085 0.030861
0.342100 0.489085 0.030861
0.342100 0.489085 0.030861
0.342100 0.489085 0.030861
0.342100 0.489085 0.030861
0.342100 0.489086 0.030861
0.495784 0.725853 0.009279
0.495785 0.725855 0.009278
0.495785 0.725855 0.009278
0.495785 0.725855 0.009278
0.495785 0.725855 0.009278
0.495785 0.725854 0.009278
0.464500 0.687500 0.000000
0.463181 0.687500 0.000000
0.461875 0.687500 0.000000
0.603453 0.688561 0.282079
0.603453 0.688560 0.282079
0.558953 0.633334 0.270588
0.558953 0.633334 0.270588
0.601253 0.684658 0.288235
0.601252 0.684657 0.288235
0.447240 0.520167 0.215538
0.447239 0.520165 0.215538
0.451882 0.526010 0.218533
0.354174 0.467179 0.078698
0.354173 0.467179 0.078697
0.354173 0.467179 0.078697
0.354173 0.467179 0.078697
0.354173 0.467179 0.078697
0.354175 0.467181 0.078698
0.608502 0.775359 0.189581
0.608503 0.775360 0.189581
0.608503 0.775360 0.189581
0.608503 0.775360 0.189581
0.608503 0.775360 0.189581
0.608503 0.775360 0.189581
0.608503 0.775360 0.189581
0.608503 0.775360 0.189581
0.608502 0.775360 0.189581
0.495275 0.727290 0.004973
0.495274 0.727290 0.004973
0.495274 0.727290 0.004973
0.495274 0.727290 0.004973
0.495274 0.727290 0.004973
0.495274 0.727290 0.004973
0.495274 0.727290 0.004973
0.485991 0.718750 0.000000
0.484688 0.718750 0.000000
0.603453 0.688561 0.282079
0.603453 0.688561 0.282079
0.603453 0.688561 0.282079
0.603453 0.688561 0.282079
0.601253 0.684658 0.288235
0.601253 0.684658 0.288235
0.601252 0.684657 0.288235
0.447240 0.520167 0.215538
0.451883 0.526010 0.218534
0.354174 0.467180 0.078698
0.354174 0.467179 0.078697
0.354173 0.467179 0.078697
0.354173 0.467179 0.078697
0.354175 0.467181 0.078698
0.608502 0.775359 0.189581
0.608504 0.775361 0.189582
0.608504 0.775361 0.189582
0.608504 0.775361 0.189582
0.608504 0.775361 0.189582
0.608504 0.775361 0.189582
0.608504 0.775361 0.189582
0.608504 0.775361 0.189582
0.608504 0.775361 0.189582
0.608503 0.775361 0.189581
0.495275 0.727290 0.004974
0.495274 0.727290 0.004973
0.495275 0.727290 0.004973
0.495275 0.727290 0.004973
0.495275 0.727290 0.004973
0.495275 0.727290 0.004973
0.495275 0.727290 0.004973
0.501373 0.741176 0.000000
0.503922 0.745098 0.000000
0.603453 0.688561 0.282079
0.603453 0.688561 0.282079
0.603453 0.688561 0.282079
0.603453 0.688561 0.282079
0.601253 0.684658 0.288235
0.601253 0.684658 0.288235
0.601253 0.684658 0.288235
0.601252 0.684657 0.288235
0.451884 0.526011 0.218535
0.451882 0.526010 0.218534
0.354174 0.467179 0.078698
0.354173 0.467179 0.078697
0.354175 0.467181 0.078698
0.608502 0.775359 0.189581
0.608504 0.775361 0.189582
0.608504 0.775361 0.189582
0.608504 0.775361 0.189582
0.608504 0.775361 0.189582
0.608504 0.775361 0.189582
0.608504 0.775361 0.189582
0.608504 0.775361 0.189582
0.608504 0.775361 0.189582
0.608504 0.775361 0.189582
0.608503 0.775361 0.189581
0.495276 0.727291 0.004975
0.495274 0.727290 0.004973
0.495274 0.727290 0.004973
0.495275 0.727290 0.004973
0.495275 0.727290 0.004973
0.495275 0.727291 0.004973
0.495275 0.727291 0.004973
0.528612 0.772549 0.011765
0.528612 0.772549 0.011765
0.603453 0.688561 0.282079
0.603453 0.688561 0.282079
0.603453 0.688561 0.282079
0.603453 0.688561 0.282079
0.601253 0.684658 0.288235
0.601253 0.684658 0.288235
0.601253 0.684658 0.288235
0.601253 0.684657 0.288235
0.451885 0.526012 0.218535
0.451883 0.526010 0.218534
0.354174 0.467180 0.078698
0.354176 0.467182 0.078698
0.608502 0.775359 0.189581
0.608504 0.775361 0.189582
0.608504 0.775361 0.189582
0.608504 0.775361 0.189582
0.608504 0.775361 0.189582
0.608504 0.775361 0.189582
0.608504 0.775361 0.189582
0.608504 0.775361 0.189582
0.608504 0.775361 0.189582
0.608504 0.775361 0.189582
0.608504 0.775362 0.189582
0.660863 0.847058 0.195705
0.660862 0.847058 0.195704
0.495275 0.727290 0.004973
